X:348
T:Sunny Banks
Z: id:dc-reel-324
M:C
L:1/8
K:D Major
B|AFF2 dBcA|BdAF GFGB|AFF2 dBcA|BdAF DEFG|!
AFF2 dBcA|BdAF GFGB|AFF2 dBcA|BdAF D3|]!
e|fded cAAe|fdef gfge|fded cAA=c|BdAG FDD:|!